assets/img/braze_icons/user-03.svg

<svg fill="none" height="24" viewBox="0 0 24 24" width="24" xmlns="http://www.w3.org/2000/svg"><g clip-rule="evenodd" fill="#801ed7" fill-rule="evenodd"><path d="m2.27242 19.314c2.50586-2.6578 5.93283-4.314 9.72758-4.314 3.7948 0 7.2218 1.6562 9.7276 4.314.2738.2904.3487.7158.1906 1.0822-.1582.3665-.5191.6038-.9182.6038h-17.99998c-.39911 0-.76001-.2373-.91815-.6038-.15814-.3664-.08324-.7918.19055-1.0822z"/><path d="m6.50002 7.5c0-3.03757 2.46244-5.5 5.49998-5.5 3.0376 0 5.5 2.46243 5.5 5.5 0 3.0376-2.4624 5.5-5.5 5.5-3.03754 0-5.49998-2.4624-5.49998-5.5z"/></g></svg>

<svg width="24" height="24" viewBox="0 0 24 24" fill="none" xmlns="http://www.w3.org/2000/svg">
<path fill-rule="evenodd" clip-rule="evenodd" d="M2.27242 19.314C4.77828 16.6562 8.20525 15 12 15C15.7948 15 19.2218 16.6562 21.7276 19.314C22.0014 19.6044 22.0763 20.0298 21.9182 20.3962C21.76 20.7627 21.3991 21 21 21H3.00002C2.60091 21 2.24001 20.7627 2.08187 20.3962C1.92373 20.0298 1.99863 19.6044 2.27242 19.314Z" fill="#801ED7"/>
<path fill-rule="evenodd" clip-rule="evenodd" d="M6.50002 7.5C6.50002 4.46243 8.96246 2 12 2C15.0376 2 17.5 4.46243 17.5 7.5C17.5 10.5376 15.0376 13 12 13C8.96246 13 6.50002 10.5376 6.50002 7.5Z" fill="#801ED7"/>
</svg>
